X:324
T:Huntington's Maggot. (p)1695.PLFD1.324
M:4/4
L:1/4
Q:1/2=100
S:Playford, Dancing Master,9th Ed,1695.
R:.Maggot
O:England;London
H:1695.
Z:Chris Partington.
K:F
f2(g>f/2g/4)|a2df|e(f/e/)d^c|d2Ae|
f2(g>f/2g/4)|a2df|e(f/e/)d^c|d3:|
|:a|a2b>c'|^f3g|abc'a|b>c'ba|g>aa>g|g3d|
e3(f/4g/4a/)|c3d|efg(f/e/)|a>bag|f>ee>d|d3:|
|:a|fefe/d/|e2Ae|f>gg>f/2g/4|a3:|
|:a|a>gab|g/f/g/a/ga|f>gg>f|f3e/f/|
gfed|e/d/c/B/Aa|f>ee>d|d3:|
